packages/ui-icons/svg/Line/copy-course.svg

<svg viewBox="0 0 1920 1920" version="1.1" xmlns="http://www.w3.org/2000/svg">
    <path d="M0,1919.88709 L1467.87912,1919.88709 L1467.87912,452.007969 L0,452.007969 L0,1919.88709 Z M1354.96534,564.921747 L1354.96534,1806.97331 L112.913778,1806.97331 L112.913778,564.921747 L1354.96534,564.921747 Z M1920,0 L1920,1467.99203 L1581.25867,1467.99203 L1581.25867,1354.96534 L1807.08622,1354.96534 L1807.08622,112.913778 L565.034661,112.913778 L565.034661,338.741335 L452.007969,338.741335 L452.007969,0 L1920,0 Z M338.741335,1016.92972 L1129.13778,1016.92972 L1129.13778,904.015937 L338.741335,904.015937 L338.741335,1016.92972 Z M338.741335,1467.99203 L1129.13778,1467.99203 L1129.13778,1354.96534 L338.741335,1354.96534 L338.741335,1467.99203 Z M338.741335,1242.40442 L903.310226,1242.40442 L903.310226,1129.49064 L338.741335,1129.49064 L338.741335,1242.40442 Z" stroke="none" stroke-width="1" fill-rule="evenodd"/>
</svg>

<svg viewBox="0 0 1920 1920" version="1.1" xmlns="http://www.w3.org/2000/svg">
    <path d="M0 1919.887h1467.88V452.008H0v1467.88zm112.914-112.914V564.922h1242.051v1242.051H112.914zM452.008 0H1920v1467.992h-338.741v-113.027h225.827V112.914H565.035V338.74H452.008V0zM338.741 1016.93h790.397V904.016H338.74v112.914zm0 451.062h790.397v-113.027H338.74v113.027zm0-225.588h564.57v-112.913H338.74v112.913z" stroke="none" stroke-width="1" fill-rule="evenodd"/>
</svg>
